X:111
T:Paddy McCarthy
T:Man of the House
M:4/4
L:1/8
R:reel
D:The Corrs: Talk on Corners
N:Learned from The Corrs: Talk on Corners
Z:Michael Abraham Shulman
K:Em
|:E2B2 GABG|E2BG FEAF|E2B2 GABe|dBBA BEED|
E2B2 GABG|E2BG FEAF|E2B2 GABe|dBBA BEED:|
|:efge fgaf|gfed edBd|efge fgaf|gfed Bee2|
efge fgaf|gfed edBd|bgaf gefd|edBA GEE2:|
